X:258
T: DIE FEIGHEIT ISTS DIE UNS VERDIRBT
N: F0452
O: Europa, Mitteleuropa, Deutschland
R: Vaterlands -, Heimat - Lied
M: 4/4
L: 1/8
K: F
C2 | F2A2c2AF | d2B2G2z
F | E2G2c3G | B2A2F2z
A | G2=B2c2BA | G2=B2c2
e2 | d2f2A2=B2 | d3cc2
c2 | B2GAB2d2 | c3Ac2
f2 | d2BGc2FG | A2G2F2

@@@ Tune index: 5689
